X:2
T: Lisdoonvarna Hornpipe 2
R: hornpipe
A:Clare
C:Trad
O: Ireland
W: Collected in Lisdoonvarana, Co. Clare
M: 4/4
L: 1/8
K: Ador
|: AG | EAAG A2(3ABc | edef g2ab | aged BedB | A2AE G2ED  |
|       EAAG A2(3ABc | edef g2ab | aged BedB | A4   A2   :|
|: Bd | eaab c'2ba   | geef g2ce | aged BedB | A2A2 G2ED  |
|       EAAG A2(3ABc | edef g2ab | aged BedB | A4   A2   :|

